X:64
T:Dirty Old Town
R:song
C:Ewan McColl (1915-1989)
Z:id:hn-song-64
M:4/4
L:1/8
Q:1/4=140
K:G
D2 E2 G2 | B8- | B2 G>A B2 G2 | D8- | D4
B2 d2 | e8- | e2 d>B A3 G | B8- | B4
e2 d2 | B8- | B2 G>A B2 G2 | D8- | D4
E>G B2 | A8- | A4 A>G (E>D) | E8- | E2 ||
W:I met my love by the gas works wall,
W:Dreamed a dream by the old canal,
W:Kissed a girl by the factory wall,
W:Dirty old town, dirty old town.
W:
W:Clouds are drifting across the moon,
W:Cats are prowling on their beat,
W:Spring's a girl in the street at night,
W:Dirty old town, dirty old town.
W:
W:I heard a siren from the docks,
W:Saw a train set the night on fire,
W:I smelled the spring on the smokey breeze,
W:Dirty old town, dirty old town.
W:
W:I'm going to make me a good sharp axe,
W:Shining steel tempered in the fire,
W:I'll chop you down like an old dead tree,
W:Dirty old town, dirty old town.

